X:1
T:E minor Jeremiah Ingalls, 1805
T:Charles Wesley, 1742 On the Death of a Child        88. 88. 88.
T:Columbia
T:Transcribed from Ingalls' Christian Harmony, 1805.
%%score [ 1 2 3 ]
L:1/8
Q:1/4=120
M:4/4
K:G
V:1 treble nm="Tr." snm="Tr."
V:2 treble-8 nm="T." snm="T."
V:3 bass nm="B." snm="B."
V:1
"^1. And  is     the       love–ly  shadow  fled, ____ The blooming wonder of her years,  So  soon __   enshrined __  among  the  dead,   She just – ly \n2. Her  ear – ly  short–lived ex–cel–lence ____ With meek submission we bemoan,  Snatch’d in  a      fa   –  tal  moment hence,  Gone from  our \n3. In   vain  the  dear  de–par–ting   saint ____  For–bids our gushing tears to flow,  For–bear, _ my   friends, your fond complaint,  From earth to" B4 BA Bc | %1
 d4 d4 | B2 d2 (efed | e6) e2 | d2 B2 A2 B2 | c2 B2 B4- | B4 B4 | (d2 B2 e2) ^e2 | (B2 A2 d2) B2 | %9
 G4 A4 | B6 B2 | e6 Bc | %12
"^1. claims  our  pi  –  ous   tears,                                              Who to those heav'n–ly   spi  –   rits     join’d  Hath  left __  our  wretched world behind.\n2. arms,  to    Je  –  sus   gone,                                                To  heighten  by   her      swift      re  –  move   The    grief __ be  – low,  and  joy  a –bove.\n3.  heav'n  I    glad – ly     go                                                   To  glorious  com – pa – ny          a   –  bove,    Bright  an   –   gels,   and the  God  of  love.\n4. to    that    blest   a  – bode,                                                With swift de–sire   my   steps     pur  – sue,    And  take ___the   prize prepared for you.\n5. lo – ving   arms   of   thine,                                                  And  take  me  up  thy     face       to        see,     And   let ___  me    die   to   live with thee.\n6. to    that  heav'n–ly  place,                                                 Where all the storms  of   life        are      o’er,     And   pain      and   par–ting   is   no  more." d6 e2 | %13
 f6 ed | e8 | z8 | z8 | z4 z2 d2 | e2 e2 B2 e2 | (B2 e2) (B2 ed) | e6 e2 | (f2 e2 B2) Bc | %22
 d2 c2 B4 | d4 e4- | e4 z4 || %25
"^Fare – well,  fare – well.   A    sad,  a   long   fare – well." d8 | d4 z4 | B8 | B4 z2 e2 | %29
 e4 B4 | B8 | d8 | !fermata!e8 |] %33
V:2
"^4. O  praise  him,  and  rejoice  for  me ______   So  hap–py,  hap–py,  in my God!  So  soon __ from  all ____ my  pain set  free,  And  has – ten\n5. Meet   am   I   for  the  great reward, ______  The great reward, I know, is mine:  Come, O __ my  sweet      re–dee–ming  Lord,  O –pen  those\n6. The  prayer  is  sealed,  the soul  is  fled, ____  And  sees her  Savior  face to face:  But    still     she  speaks     to     us,  tho’  dead,  She  calls  us" B4 e2 B2 | %1
 A4 A4 | G2 A2 (BcBA | B6) B2 | d2 B2 d2 B2 | e2 d2 e4- | e4 e4 | (B2 G2 A2) A2 | (G2 A2 B2) ef | %9
 g4 f4 | e6 e2 | B6 G2 | %12
"^1. claims  our  pi  –  ous   tears,     Who to those heav'nly spirits  join’d ______________________ Hath  left __  our  wretched world behind.\n2. arms,  to    Je  –  sus   gone,       To heighten by her  swift re – move ______________________  The    grief __ be  – low,  and  joy  a –bove.\n3.  heav'n  I    glad – ly     go          To glorious  com –pa–ny  a – bove, ______________________   Bright  an   –   gels,   and the  God  of  love.\n4. to    that    blest   a  – bode,       With swift desire my  steps pur –sue,  ____________________    And  take ___the   prize prepared for you.\n5. lo – ving   arms   of   thine,         And take me up thy face  to     see,  ______________________    And   let ___  me    die   to   live with thee.\n6. to    that  heav'n–ly  place,        Where all the storms of life are o’er, ______________________   And   pain      and   par–ting   is   no  more." A6 Bc | %13
 d6 BA | B8 | z4 e4 | B2 B2 B2 B2 | A4 (G2 A2) | (B4- BcBA | B4- BcBA | B6) B2 | (d2 B2 e2) e2 | %22
 B2 A2 G4 | F4 E4- | E4 z4 || %25
"^Fare – well,  fare – well.   A    sad,  a   long   fare – well." A8 | B4 z4 | e8 | d4 z2 B2 | %29
 B4 e4 | d8 | B8 | !fermata!B8 |] %33
V:3
 E,4 E,2 G,2 | D,4 D,4 | G,2 F,2 E,4- | E,6 E,2 | D,2 G,2 D,2 G,2 | A,2 B,2 E,4- | E,4 z4 | z8 | %8
 z8 | z8 | z4 z2 E,2 | E,6 G,2 | D,6 G,A, | B,6 B,,2 | E,8- | E,4 E,4 | G,2 E,2 E,2 E,2 | %17
 F,4 (G,2 F,2) | E,8- | E,8- | E,6 E,2 | (B,,2 E,4) E,F, | G,2 A,2 B,4 | B,,4 E,4- | E,6 z2 || %25
 D,8 | G,4 z4 | E,8 | B,4 z2 E,2 | E,4 E,4 | B,8 | B,,8 | !fermata!E,8 |] %33

